assets/img/braze_icons/hand.svg

<svg fill="none" height="24" viewBox="0 0 24 24" width="24" xmlns="http://www.w3.org/2000/svg"><path clip-rule="evenodd" d="m12 3c-.4054 0-.7.31705-.7.66667v7.22223c0 .5523-.4477 1-1 1-.55228 0-1-.4477-1-1v-6.11112c0-.34962-.29464-.66667-.7-.66667s-.7.31705-.7.66667v9.44442c0 .5523-.44772 1-1 1s-1-.4477-1-1v-2.7778c0-.3496-.29464-.6666-.7-.6666s-.7.317-.7.6666v2.2223c0 4.0315 3.3391 7.3333 7.5 7.3333s7.5-3.3018 7.5-7.3333v-5.55559c0-.34961-.2946-.66667-.7-.66667s-.7.31706-.7.66667v2.77779c0 .5523-.4477 1-1 1s-1-.4477-1-1v-6.11112c0-.34962-.2946-.66667-.7-.66667s-.7.31705-.7.66667v6.11112c0 .5523-.4477 1-1 1s-1-.4477-1-1v-7.22223c0-.34962-.2946-.66667-.7-.66667zm2.3358-.67306c-.4708-.7982-1.3482-1.32694-2.3358-1.32694s-1.865.52874-2.33578 1.32694c-.32783-.13911-.68804-.21583-1.06422-.21583-1.47241 0-2.7 1.17533-2.7 2.66667v4.09095c-.22387-.05937-.45865-.09095-.7-.09095-1.47241 0-2.7 1.17533-2.7 2.66662v2.2223c0 5.1732 4.27206 9.3333 9.5 9.3333 5.2279 0 9.5-4.1601 9.5-9.3333v-5.55559c0-1.49133-1.2276-2.66667-2.7-2.66667-.2414 0-.4761.03159-.7.09096v-.75762c0-1.49134-1.2276-2.66667-2.7-2.66667-.3762 0-.7364.07672-1.0642.21583z" fill="#801ed7" fill-rule="evenodd"/></svg>

<svg width="24" height="24" viewBox="0 0 24 24" fill="none" xmlns="http://www.w3.org/2000/svg">
<path fill-rule="evenodd" clip-rule="evenodd" d="M12 3C11.5946 3 11.3 3.31705 11.3 3.66667V10.8889C11.3 11.4412 10.8523 11.8889 10.3 11.8889C9.74772 11.8889 9.3 11.4412 9.3 10.8889V4.77778C9.3 4.42816 9.00536 4.11111 8.6 4.11111C8.19464 4.11111 7.9 4.42816 7.9 4.77778V14.2222C7.9 14.7745 7.45228 15.2222 6.9 15.2222C6.34772 15.2222 5.9 14.7745 5.9 14.2222V11.4444C5.9 11.0948 5.60536 10.7778 5.2 10.7778C4.79464 10.7778 4.5 11.0948 4.5 11.4444V13.6667C4.5 17.6982 7.8391 21 12 21C16.1609 21 19.5 17.6982 19.5 13.6667V8.11111C19.5 7.7615 19.2054 7.44444 18.8 7.44444C18.3946 7.44444 18.1 7.7615 18.1 8.11111V10.8889C18.1 11.4412 17.6523 11.8889 17.1 11.8889C16.5477 11.8889 16.1 11.4412 16.1 10.8889V4.77778C16.1 4.42816 15.8054 4.11111 15.4 4.11111C14.9946 4.11111 14.7 4.42816 14.7 4.77778V10.8889C14.7 11.4412 14.2523 11.8889 13.7 11.8889C13.1477 11.8889 12.7 11.4412 12.7 10.8889V3.66667C12.7 3.31705 12.4054 3 12 3ZM14.3358 2.32694C13.865 1.52874 12.9876 1 12 1C11.0124 1 10.135 1.52874 9.66422 2.32694C9.33639 2.18783 8.97618 2.11111 8.6 2.11111C7.12759 2.11111 5.9 3.28644 5.9 4.77778V8.86873C5.67613 8.80936 5.44135 8.77778 5.2 8.77778C3.72759 8.77778 2.5 9.95311 2.5 11.4444V13.6667C2.5 18.8399 6.77206 23 12 23C17.2279 23 21.5 18.8399 21.5 13.6667V8.11111C21.5 6.61978 20.2724 5.44444 18.8 5.44444C18.5586 5.44444 18.3239 5.47603 18.1 5.5354V4.77778C18.1 3.28644 16.8724 2.11111 15.4 2.11111C15.0238 2.11111 14.6636 2.18783 14.3358 2.32694Z" fill="#801ED7"/>
</svg>
